X:1
T:Mein Röselein
T:Satz von Friedrich Silcher
T:Volkslied
T:Mein Röselein
T:Creative Commons Attribution Non Commercial 3.0
T:Creative Commons Attribution Non Commercial 3.0
C:Friedrich Silcher
Z:Creative Commons Attribution Non Commercial 3.0
%%score [ ( 1 2 ) ( 3 4 ) ]
L:1/8
Q:1/4=126
M:3/4
K:D
V:1 treble-8 nm="Tenor"
V:2 treble-8 
V:3 bass nm="Bass"
V:4 bass 
V:1
"^Bewegt" A2 | d3 e fd | A2 F2 A2 | B3 c (dB) | A4 F2 | (GG) B2 (AG) | F2 A2 (dd) | fe d2 c2 | %8
w: 1.~Der|Mai tritt ein mit|Freu- den, es|flieht der Win- ter|kalt, die|Blüm- * lein auf der|Hei- den die _|blü- hen man- nig-|
w: 2.~Es|ist so wohl- ge-|mu- te, das|Rö- se- lein _|rot, er-|fri- * schet Sinn und|Mu- te, er- *|ret- tet aus der|
w: 3.~Ach|Rö- se- lein, mein|Weg- wart, gar|freund- lich ich _|bitt', mein|Wan- der- stab zu _|al- ler Fahrt, da-|zu Ver- giß- mein-|
 !breath!d4 de | f2 d2 a2 | e3 d c2 | (dd) B2 e2 | (c2 A2) z A | B3 c dB | A2 d2 f2 | (fe) d2 c2 | %16
w: falt. Ein _|Rö- se- lein|zar- te, von|Far- * be so|schön, * das|blüht in mei- nem|Gar- ten, vor|al- * len ich's|
w: Not; es _|ist mein Ehr'n-|prei- se, da-|zu mein Au- gen-|trost, * und|hat mit al- lem|Flei- ße vom|To- de mich er-|
w: nit! Die _|Not mußt ver-|til- gen, so-|lang' _ du nur|mein, * Ka-|trin- chen von der|Lil- gen mein|Rös- * lein muß|
 d4 |] %17
w: krön'!|
w: lost.|
w: sein.|
V:2
 A2 | A3 A AA | A2 F2 F2 | G3 A (BG) | F4 D2 | (EE) G2 (FE) | F2 A2 (BB) | BB A2 A2 | A4 A2 | %9
 d2 A2 d2 | c3 B A2 | (BB) ^G2 B2 | A4 x A | G3 A BG | F2 A2 d2 | (BB) A2 A2 | A4 |] %17
V:3
 A,2 | F,3 G, A,F, | F,2 D,2 D,2 | D,3 D, (D,D,) | D,4 F,2 | (E,E,) E,2 (C,C,) | D,2 F,2 (F,F,) | %7
 G,G, F,2 E,2 | !breath!F,4 F,G, | A,2 F,2 A,2 | A,3 A, A,2 | (^G,G,) E,2 E,2 | E,4 z D, | %13
 D,3 D, D,D, | D,2 F,2 A,2 | (G,G,) F,2 E,2 | F,4 |] %17
V:4
 A,2 | D,3 D, D,D, | D,2 D,2 D,2 | G,,3 G,, (G,,B,,) | D,4 D,2 | (D,D,) C,2 (A,,A,,) | %6
 D,2 D,2 (B,,B,,) | G,,G,, A,,2 A,,2 | D,4 D,2 | D,2 D,2 F,2 | A,3 A, A,2 | (E,E,) E,2 ^G,,2 | %12
 (A,,2 C,2) x F,, | =G,,3 G,, G,,B,, | D,2 D,2 D,2 | (G,,G,,) A,,2 A,,2 | D,4 |] %17

